svg/24/logo-tumblr.svg

<svg width="24" height="24" viewBox="0 0 24 24" fill="currentColor" xmlns="http://www.w3.org/2000/svg"><path d="M17.3333 22H14C11.0083 22 8.75 20.45 8.75 16.75V10.8167H6V7.6C7.2404 7.26545 8.33993 6.54 9.13551 5.53126C9.9311 4.52252 10.3804 3.28421 10.4167 2H13.55V7.1H17.1833V10.8167H13.55V15.9833C13.55 17.5333 14.3333 18.0583 15.5667 18.0583H17.3333V22Z"/></svg>

<svg xmlns="http://www.w3.org/2000/svg" width="24" height="24" fill="currentColor" viewBox="0 0 24 24">
  <path d="M17.333 22H14c-2.992 0-5.25-1.55-5.25-5.25v-5.933H6V7.6A5.975 5.975 0 0 0 10.417 2h3.133v5.1h3.633v3.717H13.55v5.166c0 1.55.783 2.075 2.017 2.075h1.766V22Z"/>
</svg>
